public/img/assets/icons/Line 14.svg

<svg width="105" height="180" viewBox="0 0 105 180" fill="none" xmlns="http://www.w3.org/2000/svg">
<path d="M22.4666 2.85072e-05L22.3179 6.90237L16.3723 3.34036L22.4666 2.85072e-05ZM92.0002 130.119L92.5776 129.948L92.0002 130.119ZM59.4665 154L58.9236 154.26L58.9236 154.26L59.4665 154ZM20.7948 3.89605C20.6255 4.1807 20.2562 4.27582 19.97 4.10849C19.6838 3.94117 19.5891 3.57477 19.7584 3.29011L20.7948 3.89605ZM15.7575 10.363C15.914 10.0712 16.2787 9.95986 16.5722 10.1144C16.8656 10.2689 16.9767 10.6307 16.8202 10.9225L15.7575 10.363ZM13.1125 18.2722C12.9711 18.5714 12.6125 18.7009 12.3115 18.5614C12.0105 18.4219 11.8811 18.0662 12.0225 17.7669L13.1125 18.2722ZM8.7313 25.2626C8.85557 24.956 9.20637 24.8067 9.51482 24.9293C9.82327 25.0518 9.97258 25.3997 9.84831 25.7063L8.7313 25.2626ZM7.05292 33.2629C6.94815 33.5765 6.60736 33.7472 6.29175 33.6441C5.97614 33.5409 5.80522 33.2031 5.90999 32.8894L7.05292 33.2629ZM3.57092 40.8043C3.65301 40.4841 3.9808 40.2898 4.30305 40.3704C4.62531 40.451 4.82 40.776 4.7379 41.0962L3.57092 40.8043ZM3.02656 49.0511C2.97021 49.3767 2.65885 49.596 2.33111 49.541C2.00338 49.486 1.78337 49.1774 1.83971 48.8519L3.02656 49.0511ZM0.791386 56.9942C0.81886 56.6651 1.10979 56.4196 1.4412 56.4459C1.77261 56.4723 2.019 56.7605 1.99153 57.0896L0.791386 56.9942ZM1.70247 65.1741C1.70682 65.5043 1.44078 65.7762 1.10826 65.7814C0.775745 65.7867 0.502663 65.5233 0.498317 65.1931L1.70247 65.1741ZM1.0276 73.3826C0.989059 73.0547 1.22558 72.7572 1.55589 72.718C1.88619 72.6788 2.1852 72.9128 2.22374 73.2406L1.0276 73.3826ZM3.60159 81.2032C3.67569 81.5249 3.47295 81.8461 3.14876 81.9206C2.82457 81.9951 2.5017 81.7947 2.42761 81.473L3.60159 81.2032ZM4.71663 89.3616C4.60694 89.0502 4.77252 88.7087 5.08646 88.5989C5.40039 88.4891 5.74381 88.6526 5.85349 88.964L4.71663 89.3616ZM8.96333 96.425C9.10725 96.7222 8.9809 97.0797 8.68111 97.2235C8.38132 97.3672 8.02162 97.2428 7.8777 96.9455L8.96333 96.425ZM11.8612 104.134C11.6856 103.854 11.7721 103.485 12.0544 103.31C12.3368 103.135 12.7081 103.22 12.8838 103.5L11.8612 104.134ZM17.5443 110.119C17.7485 110.379 17.7012 110.755 17.4387 110.958C17.1762 111.161 16.7979 111.116 16.5937 110.855L17.5443 110.119ZM21.9914 117.061C21.7622 116.822 21.7718 116.444 22.0127 116.216C22.2537 115.987 22.6348 115.996 22.864 116.234L21.9914 117.061ZM28.7677 121.821C29.0186 122.037 29.045 122.415 28.8267 122.664C28.6084 122.914 28.2281 122.941 27.9772 122.725L28.7677 121.821ZM34.4608 127.815C34.1913 127.622 34.1308 127.248 34.3256 126.98C34.5204 126.712 34.8968 126.651 35.1663 126.844L34.4608 127.815ZM41.9853 131.28C42.2708 131.448 42.364 131.815 42.1935 132.099C42.023 132.383 41.6534 132.477 41.3678 132.308L41.9853 131.28ZM48.6288 136.176C48.3295 136.033 48.2042 135.676 48.3491 135.379C48.4939 135.081 48.854 134.956 49.1533 135.098L48.6288 136.176ZM56.681 138.28C56.9925 138.395 57.1506 138.739 57.0341 139.049C56.9176 139.358 56.5707 139.516 56.2592 139.401L56.681 138.28ZM64.1415 141.861C63.8196 141.779 63.6263 141.454 63.7096 141.134C63.793 140.814 64.1216 140.621 64.4435 140.703L64.1415 141.861ZM72.4527 142.213C72.7828 142.252 73.0181 142.549 72.9781 142.877C72.9382 143.205 72.6382 143.44 72.308 143.401L72.4527 142.213ZM80.6327 143.603C80.3013 143.632 80.0099 143.389 79.9817 143.06C79.9535 142.731 80.1993 142.441 80.5306 142.412L80.6327 143.603ZM88.1136 140.284C88.3993 140.114 88.7689 140.206 88.9392 140.489C89.1095 140.772 89.0161 141.14 88.7305 141.309L88.1136 140.284ZM93.1612 134.217C93.1448 134.547 92.8623 134.802 92.5302 134.787C92.198 134.772 91.942 134.492 91.9584 134.162L93.1612 134.217ZM89.8596 126.252C89.7138 125.956 89.8379 125.597 90.1368 125.452C90.4357 125.306 90.7961 125.428 90.9419 125.725L89.8596 126.252ZM85.1925 118.755C85.464 118.945 85.5284 119.318 85.3364 119.588C85.1444 119.858 84.7686 119.923 84.4971 119.733L85.1925 118.755ZM76.4988 117.299C76.1663 117.303 75.8945 117.038 75.8918 116.708C75.8891 116.378 76.1565 116.107 76.489 116.104L76.4988 117.299ZM67.719 118.527C68.01 118.366 68.3764 118.47 68.5374 118.758C68.6984 119.047 68.593 119.411 68.302 119.571L67.719 118.527ZM61.7755 125.145C61.5695 125.405 61.1909 125.451 60.9298 125.247C60.6687 125.043 60.624 124.667 60.8299 124.408L61.7755 125.145ZM56.6253 132.389C56.7236 132.073 57.0608 131.896 57.3785 131.993C57.6962 132.089 57.874 132.424 57.7758 132.739L56.6253 132.389ZM56.6932 141.251C56.7072 141.581 56.4491 141.861 56.1168 141.875C55.7846 141.89 55.504 141.635 55.49 141.305L56.6932 141.251ZM57.2019 150.1C57.0946 149.788 57.2626 149.448 57.5774 149.34C57.8921 149.233 58.2343 149.399 58.3417 149.711L57.2019 150.1ZM62.171 157.62C62.3484 157.899 62.2642 158.268 61.9829 158.445C61.7016 158.622 61.3297 158.539 61.1524 158.26L62.171 157.62ZM66.926 165.345C66.6887 165.115 66.6853 164.736 66.9184 164.5C67.1514 164.264 67.5327 164.259 67.7699 164.49L66.926 165.345ZM74.7763 169.967C75.057 170.143 75.1399 170.513 74.9615 170.792C74.7831 171.071 74.4109 171.154 74.1303 170.978L74.7763 169.967ZM82.2805 175.121C81.973 174.996 81.8262 174.647 81.9527 174.341C82.0792 174.036 82.431 173.889 82.7386 174.014L82.2805 175.121ZM91.2789 176.753C91.6016 176.832 91.7981 177.156 91.7177 177.476C91.6374 177.797 91.3107 177.993 90.988 177.914L91.2789 176.753ZM99.9944 179.493C99.6639 179.458 99.4257 179.163 99.4624 178.835C99.4991 178.506 99.7967 178.269 100.127 178.305L99.9944 179.493ZM16.8202 10.9225C15.4878 13.4078 14.2531 15.8577 13.1125 18.2722L12.0225 17.7669C13.172 15.3336 14.4158 12.8656 15.7575 10.363L16.8202 10.9225ZM9.84831 25.7063C8.8102 28.2676 7.88004 30.7865 7.05292 33.2629L5.90999 32.8894C6.74524 30.3887 7.68409 27.8464 8.7313 25.2626L9.84831 25.7063ZM4.7379 41.0962C4.04404 43.8025 3.476 46.4541 3.02656 49.0511L1.83971 48.8519C2.29467 46.223 2.86941 43.5404 3.57092 40.8043L4.7379 41.0962ZM1.99153 57.0896C1.76095 59.8519 1.66789 62.5468 1.70247 65.1741L0.498317 65.1931C0.463222 62.527 0.557677 59.794 0.791386 56.9942L1.99153 57.0896ZM2.22374 73.2406C2.54529 75.976 3.00892 78.6302 3.60159 81.2032L2.42761 81.473C1.82523 78.8579 1.35421 76.161 1.0276 73.3826L2.22374 73.2406ZM5.85349 88.964C6.76224 91.5439 7.80416 94.0309 8.96333 96.425L7.8777 96.9455C6.69956 94.5123 5.64044 91.9842 4.71663 89.3616L5.85349 88.964ZM12.8838 103.5C14.3325 105.808 15.8921 108.014 17.5443 110.119L16.5937 110.855C14.9166 108.719 13.3329 106.479 11.8612 104.134L12.8838 103.5ZM22.864 116.234C24.7589 118.207 26.7337 120.069 28.7677 121.821L27.9772 122.725C25.9156 120.95 23.9133 119.062 21.9914 117.061L22.864 116.234ZM35.1663 126.844C37.4055 128.445 39.6865 129.923 41.9853 131.28L41.3678 132.308C39.0396 130.934 36.7292 129.437 34.4608 127.815L35.1663 126.844ZM49.1533 135.098C51.6822 136.306 54.2019 137.367 56.681 138.28L56.2592 139.401C53.7448 138.475 51.1908 137.4 48.6288 136.176L49.1533 135.098ZM64.4435 140.703C67.2378 141.414 69.925 141.917 72.4527 142.213L72.308 143.401C69.7223 143.098 66.9824 142.584 64.1415 141.861L64.4435 140.703ZM80.5306 142.412C83.6281 142.142 86.2021 141.422 88.1136 140.284L88.7305 141.309C86.612 142.57 83.8433 143.323 80.6327 143.603L80.5306 142.412ZM91.9584 134.162C92.0156 133.011 91.8496 131.722 91.4228 130.291L92.5776 129.948C93.0357 131.484 93.2262 132.909 93.1612 134.217L91.9584 134.162ZM91.4228 130.291C90.9796 128.804 90.454 127.46 89.8596 126.252L90.9419 125.725C91.5679 126.997 92.117 128.403 92.5776 129.948L91.4228 130.291ZM84.4971 119.733C82.0708 118.036 79.3156 117.269 76.4988 117.299L76.489 116.104C79.5415 116.07 82.5468 116.905 85.1925 118.755L84.4971 119.733ZM68.302 119.571C65.8812 120.908 63.6355 122.798 61.7755 125.145L60.8299 124.408C62.7863 121.939 65.1542 119.943 67.719 118.527L68.302 119.571ZM57.7758 132.739C56.9667 135.339 56.5642 138.195 56.6932 141.251L55.49 141.305C55.3553 138.112 55.7755 135.119 56.6253 132.389L57.7758 132.739ZM58.3417 149.711C58.7959 151.031 59.3491 152.375 60.0094 153.74L58.9236 154.26C58.2435 152.855 57.672 151.467 57.2019 150.1L58.3417 149.711ZM60.0094 153.74C60.6711 155.107 61.3946 156.399 62.171 157.62L61.1524 158.26C60.3515 157.001 59.6055 155.669 58.9236 154.26L60.0094 153.74ZM67.7699 164.49C69.9602 166.62 72.3299 168.43 74.7763 169.967L74.1303 170.978C71.6203 169.401 69.1827 167.54 66.926 165.345L67.7699 164.49ZM82.7386 174.014C85.6942 175.212 88.5991 176.098 91.2789 176.753L90.988 177.914C88.2605 177.248 85.2986 176.345 82.2805 175.121L82.7386 174.014ZM100.127 178.305C101.511 178.453 102.627 178.527 103.395 178.564C103.779 178.583 104.075 178.592 104.275 178.597C104.375 178.599 104.451 178.6 104.501 178.601C104.526 178.601 104.544 178.601 104.556 178.601C104.563 178.601 104.567 178.601 104.57 178.601C104.571 178.601 104.572 178.601 104.573 178.601C104.573 178.601 104.573 178.601 104.573 178.601C104.573 178.601 104.573 178.601 104.573 178.601C104.573 178.601 104.573 178.601 104.573 178.601C104.573 178.601 104.573 178.601 104.571 179.199C104.57 179.797 104.57 179.797 104.57 179.797C104.57 179.797 104.569 179.797 104.569 179.797C104.569 179.797 104.569 179.797 104.569 179.797C104.569 179.797 104.568 179.797 104.568 179.797C104.566 179.797 104.565 179.797 104.563 179.797C104.559 179.797 104.554 179.797 104.546 179.797C104.532 179.797 104.511 179.797 104.484 179.796C104.429 179.796 104.349 179.795 104.244 179.792C104.035 179.787 103.728 179.778 103.333 179.759C102.544 179.721 101.404 179.645 99.9944 179.493L100.127 178.305Z" fill="#6892B9"/>
</svg>

<svg xmlns="http://www.w3.org/2000/svg" fill="none" viewBox="0 0 105 180"><path d="m22.47 0-.15 6.9-5.95-3.56L22.47 0ZM92 130.12l.58-.17-.58.17ZM59.47 154l-.55.26.55-.26ZM20.79 3.9a.6.6 0 0 1-.82.2.6.6 0 0 1-.21-.8l1.03.6Zm-5.03 6.46a.6.6 0 0 1 .8-.25c.3.16.4.52.26.81l-1.06-.56Zm-2.65 7.91a.6.6 0 0 1-.8.3.6.6 0 0 1-.2-.8l1.1.5Zm-4.38 7a.6.6 0 0 1 .78-.34.6.6 0 0 1 .34.78l-1.12-.45Zm-1.68 8a.6.6 0 0 1-.76.37.6.6 0 0 1-.38-.75l1.14.37ZM3.57 40.8a.6.6 0 0 1 .73-.43c.33.08.52.4.44.73l-1.17-.3Zm-.54 8.25a.6.6 0 0 1-.7.5.6.6 0 0 1-.5-.7l1.2.2ZM.79 57a.6.6 0 0 1 1.2.1L.79 57Zm.91 8.18a.6.6 0 0 1-1.2.02l1.2-.02Zm-.67 8.21a.6.6 0 0 1 .53-.7.6.6 0 0 1 .66.5l-1.2.11Zm2.57 7.8a.6.6 0 0 1-.45.7.6.6 0 0 1-.72-.5l1.17-.28Zm1.12 8.1a.6.6 0 0 1 1.14-.4l-1.14.38Zm4.24 7.04a.6.6 0 0 1-1.09.52l1.1-.52Zm2.9 7.71a.6.6 0 0 1 .2-.82.6.6 0 0 1 .82.2l-1.02.61Zm5.68 6a.6.6 0 0 1-.1.83.6.6 0 0 1-.85-.1l.95-.74Zm4.45 6.93a.6.6 0 0 1 .02-.84.6.6 0 0 1 .9 0l-.82.84Zm6.78 4.76c.25.22.28.6.06.84a.6.6 0 0 1-.85.06l.79-.9Zm5.7 6a.6.6 0 0 1-.14-.84.6.6 0 0 1 .84-.14l-.7.97Zm7.52 3.46a.6.6 0 0 1 .2.82.6.6 0 0 1-.93.2l.62-1.02Zm6.64 4.9a.6.6 0 0 1-.28-.8.6.6 0 0 1 .8-.28l-.52 1.08Zm8.05 2.1a.6.6 0 0 1 .35.77.6.6 0 0 1-.77.35l.42-1.12Zm7.46 3.58a.6.6 0 0 1-.43-.73.6.6 0 0 1 .73-.43l-.3 1.16Zm8.3.35a.6.6 0 1 1-.13 1.2l.14-1.2Zm8.19 1.4a.6.6 0 1 1-.1-1.2l.1 1.2Zm7.48-3.33a.6.6 0 0 1 .83.2.6.6 0 0 1-.2.83l-.63-1.04Zm5.05-6.06a.6.6 0 0 1-1.2-.06l1.2.08Zm-3.3-7.97a.6.6 0 0 1 1.08-.53l-1.08.53Zm-4.67-7.5a.6.6 0 0 1 .15.84.6.6 0 0 1-.84.14l.7-.98Zm-8.7-1.45a.6.6 0 1 1 0-1.2v1.2Zm-8.77 1.23a.6.6 0 0 1 .82.22.6.6 0 0 1-.24.8l-.58-1.03Zm-5.94 6.6a.6.6 0 0 1-.85.1.6.6 0 0 1-.1-.83l.95.73Zm-5.15 7.25a.6.6 0 0 1 .75-.4c.32.1.5.43.4.75l-1.15-.35Zm.06 8.86a.6.6 0 0 1-.67.64.6.6 0 0 1-.63-.57l1.2-.07Zm.42 8.86a.6.6 0 0 1 1.12-.4l-1.14.4Zm4.95 7.52a.6.6 0 0 1-.2.82.6.6 0 0 1-.82-.18l1.02-.62Zm4.76 7.72a.6.6 0 0 1-.01-.84.6.6 0 0 1 .85 0l-.84.84Zm7.85 4.63a.6.6 0 0 1 .18.82.6.6 0 0 1-.83.2l.65-1.01Zm7.5 5.15a.6.6 0 0 1-.33-.78.6.6 0 0 1 .79-.33l-.47 1.1Zm9 1.63c.32.08.52.4.44.73a.6.6 0 0 1-.73.43l.29-1.17Zm8.7 2.74a.6.6 0 0 1-.53-.66.6.6 0 0 1 .67-.53l-.14 1.2ZM16.8 10.92a162.09 162.09 0 0 0-3.7 7.35l-1.1-.5c1.15-2.44 2.4-4.9 3.74-7.4l1.06.55Zm-6.96 14.8a128.48 128.48 0 0 0-2.8 7.54l-1.14-.37c.84-2.5 1.77-5.04 2.82-7.63l1.12.45ZM4.75 41.1a98.7 98.7 0 0 0-1.73 7.95l-1.2-.2a103.4 103.4 0 0 1 1.74-8.05l1.17.3Zm-2.77 16a83.88 83.88 0 0 0-.3 8.07l-1.2.02c-.05-2.66.05-5.4.3-8.2l1.2.1Zm.2 16.14c.34 2.74.8 5.4 1.4 7.96l-1.18.27a75.06 75.06 0 0 1-1.4-8.1l1.2-.13Zm3.64 15.72a72.8 72.8 0 0 0 3.1 7.47l-1.07.52a73.2 73.2 0 0 1-3.16-7.6l1.13-.4Zm7.03 14.54a80.1 80.1 0 0 0 4.66 6.62l-.86.73a78.18 78.18 0 0 1-4.74-6.72l1.02-.63Zm9.98 12.73a86.03 86.03 0 0 0 5.9 5.6l-.78.9a87.05 87.05 0 0 1-6-5.67l.87-.83Zm12.3 10.6a93.1 93.1 0 0 0 6.83 4.45l-.62 1.03a94.14 94.14 0 0 1-6.9-4.5l.7-.97Zm14 8.27a88.26 88.26 0 0 0 7.52 3.18l-.42 1.12a89.4 89.4 0 0 1-7.63-3.22l.52-1.08Zm15.28 5.6c2.8.7 5.48 1.22 8.01 1.5l-.14 1.2a63 63 0 0 1-8.17-1.52l.3-1.16Zm16.1 1.7c3.1-.26 5.7-.98 7.6-2.12l.67 1.03c-2.12 1.26-4.9 2-8.1 2.3l-.1-1.2Zm11.5-8.24c.06-1.15-.11-2.44-.54-3.87l1.16-.34c.46 1.53.65 2.96.58 4.27l-1.2-.06Zm-.54-3.87a25.88 25.88 0 0 0-1.56-4.04l1.08-.53a27.06 27.06 0 0 1 1.64 4.23l-1.16.34Zm-6.92-10.56a13.52 13.52 0 0 0-8-2.43l-.01-1.2c3.06-.03 6.07.8 8.7 2.66l-.7.97Zm-16.2-.16a21.9 21.9 0 0 0-6.52 5.58l-.96-.74a23.09 23.09 0 0 1 6.9-5.88l.58 1.04ZM57.8 132.74a25 25 0 0 0-1.11 8.5l-1.2.07c-.12-3.2.3-6.2 1.15-8.92l1.15.24Zm.55 16.97c.46 1.32 1 2.66 1.67 4.03l-1.1.52a37.8 37.8 0 0 1-1.71-4.16l1.14-.4Zm1.67 4.03a38.42 38.42 0 0 0 2.16 3.88l-1.02.64c-.8-1.26-1.54-2.6-2.23-4l1.09-.52Zm7.76 10.75a42.3 42.3 0 0 0 7 5.48l-.64 1a43.48 43.48 0 0 1-7.2-5.63l.84-.85Zm14.96 9.5a61.95 61.95 0 0 0 8.54 2.75l-.3 1.16a62.98 62.98 0 0 1-8.7-2.8l.46-1.08Zm17.4 4.3a56.63 56.63 0 0 0 4.14.23h.3v1.2h-.33l-.9-.04c-.8-.04-1.94-.1-3.35-.27l.1-1.2Z" fill="#6892B9"/></svg>
